X:129
T:Kohler's Hornpipe
R:hornpipe
H:See also #110
B:Kohlers Repository
Z:id:hn-hornpipe-129
M:C|
L:1/8
K:C
(3GAB | cBcd cdef | g^fga gedc | AGAB cdcA | GEcA GECE | 
FEFG AGAB | cBcd egag | fedc AcBd | edcB c2 :| 
|: gf | egcg egcg | dgBg dgBg | ceAe ceAe | GcEc GcEc | 
FEFG AGAB | cBcd egag | fedc AcBd | edcB c2 :| 

